!!!!SEGMENT: pl-wtm--r-1361_stefani-jozef--polonez.krn
!!!cenid: 18xx:1864
!!!COM: Stefani, Józef
!!!COM-rismid: pe30024097
!!!CDT: 1800/04/16-1876/03/19
!!!CNT: Polish
!!!OTL: Polonez
!!!PDT:
!!!AGN: Secular; Polonaise
!!!SMS-siglum: PL-Wtm
!!!SMS-shelfmark: R 1361
!!!SMS-shelfwork: W
!!!SMS-variant:
!!!SMS-altvar:
!!!NIFC-rismid: 1001119504
!!!URL-scan: http://repozytorium.nifc.pl/skany/pl-wtm-nut--r1361
!!!ONB-nifc:
!!!OMD: Polonez.
**kern	**kern	**dynam
*part1	*part1	*part1
*staff2	*staff1	*
*Iforte	*Iforte	*
*I"Fortepian	*I"Fortepian	*
*clefF4	*clefG2	*
*k[]	*k[]	*
*C:	*C:	*
*M3/4	*M3/4	*
*>[A,B,A,B,C,B,D,E,D,E,F,E,A,B,C,B,G]	*>[A,B,A,B,C,B,D,E,D,E,F,E,A,B,C,B,G]	*>[A,B,A,B,C,B,D,E,D,E,F,E,A,B,C,B,G]
=1	=1	=1
*>A	*>A	*>A
!	!	!LO:DY:rj
8cL 8G 8C\	8ccL 8e/	f
16cL 16G 16C\	16gL 16e/	.
16cJJ 16G 16C\	16gJJ 16e/	.
4.c 4.G 4.C\	4.cc 4.e/	.
8c 8G 8C\	8g 8e/	.
=2	=2	=2
8cL 8G 8C\	8ccL 8e/	.
16dL 16G\	16ddL 16b 16g/	.
16dJJ 16G\	16ddJJ 16b 16g/	.
8eL 8c\	8eeL 8cc\	.
8fJ 8d\	8ffJ 8dd\	.
4g 4e\	4gg 4ee\	.
=3	=3	=3
8AL 8AA/	8cccL 8aa 8ee\	.
16AL 16AA/	16cccL 16aa 16ee\	.
16AJJ 16AA/	16cccJJ 16aa 16ee\	.
8AL 8AA/	8cccL 8aa 8ee\	.
8AJ 8AA/	8cccJ 8aa 8ee\	.
8GL 8GG/	8ccc#XL 8aa 8ee\	.
8GJ 8GG/	8ccc#J 8aa 8ee\	.
!!LO:LB:g=original
=4	=4	=4
8FL 8FF/	8dddL 8aa 8ff\	.
8C#XJ 8CC#X/	8eeeJ 8aa 8ee\	.
8D 8DD/	8fff 8ddd 8aa 8ff\	.
8r	8r	.
!	!LO:N:vis=8	!
4F#X 4FF#X/	4aa 4dd#X 4cc\	.
=5	=5	=5
*^	*	*
8GL 8GG\	2ryy	8ggL 8ee 8cc\	.
8C\	.	(16eee\L	.
.	.	16ddd\JJ	.
8E\	.	16ccc\LL	.
.	.	16bb\	.
8G\J	.	16aa\	.
.	.	16gg\JJ)	.
8GG/L	4GG\	(16ff#X\LL	.
.	.	16gg\	.
8FJ 8D/	.	16aa\	.
.	.	16bb\JJ)	.
=6	=6	=6	=6
8GG\L	2ryy	8ccc|\L	.
8C\	.	(16eee\L	.
.	.	16ddd\JJ	.
8E\	.	16ccc\LL	.
.	.	16bb\	.
8G\J	.	16aa\	.
.	.	16gg\JJ)	.
8GG/L	4GG\	(16ff#X\LL	.
.	.	16gg\	.
8FJ 8D/	.	16aa\	.
.	.	16bb\JJ)	.
*v	*v	*	*
!!LO:LB:g=original
=7	=7	=7
8EL 8C|\	8ccc|\L	.
(16e\L	(16eee\L	.
16d\JJ	16ddd\JJ	.
16c\LL	16ccc\LL	.
16B\	16bb\	.
16A\	16aa\	.
16G\JJ)	16gg\JJ	.
(16A\LL	(16aa\LL	.
16G\	16gg\	.
16F\	16ff\	.
16E\JJ)	16ee\JJ))	.
=8	=8	=8
8F 8FF/	8aa 8ff 8cc\	.
8r	8r	.
8G 8GG/	8gg 8ee 8cc\	.
8r	8r	.
4G 4D 4GG/	4bb 4gg 4ff 4dd\	.
=9	=9	=9
!	!LO:TX:b:t=1.	!
2.r	2.r	.
=10||	=10||	=10||
*>B	*>B	*>B
*^	*	*
*	*2\right	*	*
!LO:TX:a:t=[segno]:problem:znak segno na kresce taktowej	!LO:N:vis=2	!LO:TX:a:t=[segno]:problem:znak segno na kresce taktowej	!LO:DY:rj
2.C/	8C\L	8eeL 8cc'\	p
.	8c 8G 8E\	16eeL 16cc'\	.
.	.	16ffJJ 16dd'\	.
.	8c 8G 8E\	4.gg 4.ee'\	.
.	8c 8G 8E\	.	.
.	8c 8G 8E\	.	.
.	8cJ 8G 8E\	8ccc 8ee'\	.
!!LO:LB:g=original
=11	=11	=11	=11
!	!LO:N:vis=2	!	!
2.C/	8C\L	8eeeL 8gg'\	.
.	8c 8G 8E\	16eeeL 16gg'\	.
.	.	16dddJJ 16ff'\	.
.	8c 8G 8E\	4.ccc 4.ee'\	.
.	8c 8G 8E\	.	.
.	8c 8G 8E\	.	.
.	8cJ 8G 8E\	8gg 8ee\	.
=12	=12	=12	=12
!	!	!	!LO:DY:rj
4GG#X^/	8GG#\L	(8ffT\L	f
.	8FJ 8D\	16dd\Jk)	.
.	.	16r	.
4AA^/	8AA\L	(8ffT\L	.
.	8FJ 8D\	16dd\Jk)	.
.	.	16r	.
4BB^/	8BB\L	(8ffT\L	.
.	8GJ 8F 8D\	16dd\Jk)	.
.	.	16r	.
*v	*v	*	*
=13	=13	=13
8GL 8E 8C\	8ee|\L	.
8GJ 8E 8C\	(16eee\L	.
.	16ddd\JJ)	.
8AL 8F#X 8D#X 8C^\	(16ccc\LL	.
.	16bb\JJ)	.
.	(8qddd/	.
8AJ 8F# 8D# 8C^\	16ccc\LL)	.
.	16aa\JJ	.
4G 4E 4C\	4gg\	.
!!LO:LB:g=original
=14	=14	=14
*^	*	*
!	!LO:N:vis=2	!	!
2.C/	8C\L	8eeL 8cc'\	.
.	8c 8G 8E\	16eeL 16cc'\	.
.	.	16ffJJ 16dd'\	.
.	8c 8G 8E\	4.gg 4.ee'\	.
.	8c 8G 8E\	.	.
.	8c 8G 8E\	.	.
.	8cJ 8G 8E\	8ccc 8ee\	.
=15	=15	=15	=15
!	!LO:N:vis=2	!	!
2AA/	8AA\L	8eeeL 8ccc\	.
.	8A 8E 8C\	16eeeL 16ccc\	.
.	.	16dddJJ 16bb\	.
.	8A 8E 8C\	4ccc 4aa\	.
.	8AJ 8E 8C\	.	.
8GL 8GG/	4ryy	4ccc#X 4aa\	.
8GJ 8GG/	.	.	.
*v	*v	*	*
=16	=16	=16
*	*^	*
8FL 8FF/	16ddd/LL	8aa\L	.
.	16ccc#X/	.	.
16FL 16FF/	16ddd/	8aa\J	.
16EJJ 16EE/	16eee/JJ	.	.
8D 8DD/	8fff/	8aa\	.
8r	8r	8r	.
4F 4FF/	4ddd\	4ff\	.
=17	=17	=17	=17
4G 4GG/	(16ccc/LL	8ee\L	.
.	16gg/)	.	.
.	(16eee/	16gg\L	.
.	16ddd/JJ)	16ee\JJ	.
8r	(4ddd 4ff\	2ryy	.
*clefG2	*	*	*
8gL 8B 8G/	.	.	.
8gJ 8c/	8ccc 8ee\)	.	.
!LO:TX:b:t=fine	!LO:TX:t=P:problem:fermata na kresce taktowej i fine dopisane ołówkiem	!	!
8r	8r;	.	.
*	*v	*v	*
!!LO:LB:g=original
=18:|!	=18:|!	=18:|!
*>C	*>C	*>C
*clefF4	*	*
!LO:TX:t=P:problem:mixed beam	!	!LO:DY:rj
8GG/L	8bL 8g'\	p
8BJ 8G 8D\	(16ddL 16b\	.
.	16eeJJ 16cc\)	.
*tremolo	*	*
8B 8G 8D\L	8dd 8b\	.
8B 8G 8D\	8r	.
.	(32qqgg/LLL	.
.	32qqaa/JJJ)	.
8B 8G 8D\	4bb\	.
8B 8G 8D\J	.	.
=19	=19	=19
*rep	*	*
!LO:TX:t=P:problem:mixed beam	!	!LO:DY:rj
8GG/L	8bL 8g'\	.
8BJ 8G 8D\	(16ddL 16b\	.
.	16eeJJ 16cc\)	.
8B 8G 8D\L	8dd 8b\	.
8B 8G 8D\	8r	.
.	(32qqgg/LLL	.
.	32qqaa/JJJ)	.
8B 8G 8D\	4bb\	.
8B 8G 8D\J	.	.
*Xrep	*	*
=20	=20	=20
8DL 8DD\	(4.ddd 4.dd\	.
8cJ 8F 8D\	.	.
8c 8F 8D\L	.	.
8c 8F 8D\	8cccL 8cc\	.
8c 8F 8D\	8aa 8a\	.
8c 8F 8D\J	8aa#XJ 8a#X\)	.
=21	=21	=21
8GG\L	(4bb 4b\	.
8BJ 8G 8D\	.	.
8B 8G 8D\L	8gg 8g\)	.
8B 8G 8D\	8r	.
8B 8G 8D\	4dd 4b\	.
8B 8G 8D\J	.	.
!!LO:PB:g=original
=22	=22	=22
!LO:TX:t=P:problem:mixed beam	!	!
8GG/L	8bL 8g'\	.
8BJ 8G 8D\	(16ddL 16b\	.
.	16eeJJ 16cc\)	.
8B 8G 8D\L	8dd 8b\	.
8B 8G 8D\	8r	.
.	(32qqgg/LLL	.
.	32qqaa/JJJ)	.
8B 8G 8D\	4bb\	.
8B 8G 8D\J	.	.
=23	=23	=23
*rep	*	*
!LO:TX:t=P:problem:mixed beam	!	!
8GG/L	8bL 8g'\	.
8BJ 8G 8D\	(16ddL 16b\	.
.	16eeJJ 16cc\)	.
8B 8G 8D\L	8dd 8b\	.
8B 8G 8D\	8r	.
.	(32qqgg/LLL	.
.	32qqaa/JJJ)	.
8B 8G 8D\	4bb\	.
8B 8G 8D\J	.	.
*Xrep	*	*
=24	=24	=24
8D 8DD/	4.fff#X 4.ff#X\	.
8c 8A 8F#X 8D\	.	.
8c 8A 8F# 8D\L	.	.
8c 8A 8F# 8D\	8eeeL 8ee\	.
8c 8A 8F# 8D\	8ccc 8cc\	.
8c 8A 8F# 8D\J	8aaJ 8a\	.
=25	=25	=25
!LO:TX:t=P:problem:mixed beam	!	!
8GG/L	(16bb\LL	.
.	16ccc\	.
8BJ 8G 8D\	16bb\	.
.	16aa\JJ)	.
8B 8G 8D\L	8gg\	.
8B 8G 8D\	8r	.
8B 8G 8D\	4g/	.
8B 8G 8D\J	.	.
!!LO:LB:g=original
=26	=26	=26
*^	*	*
!	!LO:N:vis=2	!	!
2GG/	(>8GG\L	[4gg [>4ee-X\	.
.	8C\	.	.
.	8E-X\	8.gg]L 8.ee-\]	.
.	8G\J)	.	.
.	.	16ggK 16ee-|\	.
4GG/	(>8GG\L	8.ff 8.dd|\	.
.	8G\J)	.	.
.	.	16ee-XJk 16cc|\	.
=27	=27	=27	=27
*	*	*^	*
*	*	*	*2\right	*
!	!LO:N:vis=2	!	!	!
2GG/	(>8GG\L	2dd/	2b\	.
.	8BB\	.	.	.
.	8D\	.	.	.
.	8G\J)	.	.	.
(4GG/	8GG\L	4g/	4ryy	.
.	8G\J)	.	.	.
*	*	*v	*v	*
=28	=28	=28	=28
!	!LO:N:vis=2	!	!
2GG/	(>8GG\L	(4.gg 4.ee-X\	.
.	8C\	.	.
.	8E-X\	.	.
.	8G\J)	16aa-XLL 16ff\	.
.	.	16ggJJ 16ee-\)	.
(4GG/	8GG\L	8.ffL 8.dd\	.
.	8G\J)	.	.
.	.	16ee-XJk 16cc|\	.
=29	=29	=29	=29
!	!LO:N:vis=2	!	!
2GG/	(>8GG\L	2dd 2b\	.
.	8BB\	.	.
.	8D\	.	.
.	8G\J)	.	.
(4BB/	8GG\L	4ddd 4dd\	.
.	8G\J)	.	.
*v	*v	*	*
=30	=30	=30
8CL 8CC/	8dddL 8dd'\	.
8AJ 8E-X 8C/	8cccJ 8cc'\	.
8A 8E- 8C\L	4.ee-X 4.e-X\	.
8A 8E- 8C\	.	.
8A 8E- 8C\	.	.
8A 8E- 8C\J	8aa 8a\	.
!!LO:LB:g=original
=31	=31	=31
8DL 8DD/	8cccL 8cc'\	.
8BJ 8G 8D/	8bbJ 8b'\	.
8B 8G 8D\L	4.dd 4.d/	.
8B 8G 8D\	.	.
8B 8G 8D\	.	.
8B 8G 8D\J	8gg 8g\	.
=32	=32	=32
8DL 8DD\	(16f#X/LL	.
.	16e/	.
8cJ 8A 8D\	16d/	.
.	16e/JJ	.
8c 8A 8D\L	16f#/LL	<
.	16g/	.
8c 8A 8D\	16a/	.
!	!LO:TX:a:t=P:problem:jeden łamany łuk	!
.	16b/JJ)	.
8c 8A 8D\	(16cc\LL	.
.	16dd\	.
8c 8A 8D\J	16ee\	.
.	16ff#X\JJ	[
=33	=33	=33
!	!	!LO:DY:rj:t=ffo
16GGLL 16GGG'/	16ggLL 16b\)	ff
16AA 16AAA'/	16ff#X 16cc'\	.
16BB 16BBB'/	16ffn 16dd'\	.
16CJJ 16CC'/	16eeJJ 16cc'\	.
16DLL 16DD'/	16ddLL 16b'/	.
16D#X 16DD#X'/	16cc 16a'/	.
16E 16EE'/	16b 16g'/	.
16FJJ 16FF'/	16aJJ 16fn'/	.
16GLL 16GG'\	16gLL 16e'/	.
16G#X 16GG#X'\	16f 16d'/	.
16A 16AA'\	16e 16c'/	.
!LO:TX:a:t=[segno]:problem:znak segno na kresce taktowej	!LO:TX:a:t=[segno]:problem:znak segno na kresce taktowej	!
16BJJ 16BB'\	16d'/JJ	.
!!LO:PB:g=original
=34||	=34||	=34||
!!!OMD: Trio.
*>D	*>D	*>D
*k[b-]	*k[b-]	*
*M3/4	*M3/4	*
!	!	!LO:DY:rj
4F 4FF/	8aL 8c/	p
.	(16g#XL 16Bn^/	.
.	16aJJ 16c/	.
8r	8fL 8A/)	.
8F/L	8c 8A/	.
8C/	8c 8A/	.
8AA/J	8cJ 8A/	.
=35	=35	=35
*	*rep	*
4FF/	8aL 8c/	.
.	(16g#XL 16Bn^/	.
.	16aJJ 16c/	.
8r	8fL 8A/)	.
8F/L	8c 8A/	.
8C/	8c 8A/	.
8AA/J	8cJ 8A/	.
*	*Xrep	*
=36	=36	=36
*>E	*>E	*>E
!LO:TX:t=P:problem:mixed beam	!LO:TX:b:i:t=dolce	!
!LO:TX:a:t=[segno]:problem:znak segno na kresce taktowej	!LO:TX:a:t=[segno]:problem:znak segno na kresce taktowej	!
8FF/L	8f'/L	.
8cJ 8A 8F\	16a'/L	.
.	16cc'/JJ	.
8c 8A 8F\L	4.ff\	.
8c 8A 8F\	.	.
8c 8A 8F\	.	.
8c 8A 8F\J	8ee\	.
!!LO:LB:g=original
=37	=37	=37
!LO:TX:t=P:problem:mixed beam	!	!
8FF/L	(16ee\LL	.
.	16dd\	.
8d 8B- 8F\	16cc#X\	.
.	16dd\JJ)	.
8d 8B- 8F\	4.b-/	.
8d 8B- 8F\	.	.
8d 8B- 8F\	.	.
8dJ 8B- 8F\	8a/	.
=38	=38	=38
*^	*	*
4F/	8F\L	8ggL 8g'\	.
.	8eJ 8c 8B-\	16aaL 16a'\	.
.	.	16bb-JJ 16b-'\	.
*rep	*rep	*	*
4F/	8F\L	4.ccc 4.cc\	.
.	8eJ 8c 8B-\	.	.
*Xrep	*Xrep	*	*
*rep	*rep	*	*
4F/	8F\L	.	.
.	8eJ 8c 8B-\	8bb- 8b-\	.
*Xrep	*Xrep	*	*
*v	*v	*	*
=39	=39	=39
8fL 8c 8A 8F\	(16aa\LL	.
.	16bb-\	.
8c 8B- 8E 8C\	16gg\	.
.	16aa\JJ)	.
8cJ 8A 8F\	8ff\	.
!	!	!LO:DY:rj
8cL 8G 8C\	8cccL 8ee 8cc^<\	f
8cJ 8A 8F\	8aaJ 8ff 8cc^<\	.
8r	8ff 8f\	.
!!LO:LB:g=original
=40	=40	=40
*^	*	*
2ryy	8FF\L	8ffL 8f'\	.
.	8AJ 8F 8C\	16aaL 16a'\	.
.	.	16cccJJ 16cc'\	.
.	8FF\L	4fff 4ff'\	.
.	8AJ 8F 8C\	.	.
4AA/	8AA\L	4eee 4ee'\	.
.	8GJ 8E 8C#X\	.	.
=41	=41	=41	=41
4BB-/	8BB-\L	(16ee\LL	.
.	.	16dd\	.
.	8FJ 8D\	16cc#X\	.
.	.	16dd\JJ)	.
4BB-/	8BB-\L	8.bb-L 8.gg\	.
.	8FJ 8D\	.	.
.	.	16aaJk 16ff\	.
4BB-/	8BB-\L	16ggLL 16ee\	.
.	.	16ff 16dd\	.
.	8GJ 8D\	16ee 16cc#\	.
.	.	16ddJJ 16b-\	f
*v	*v	*	*
=42	=42	=42
8A 8F 8C\	8ccL 8a\	.
8r	16cccL 16aa'\	.
.	16bb-JJ 16gg'\	.
4r	16aaLL 16ff'\	.
.	16gg 16ee'\	.
.	16ff 16dd'\	.
.	16eeJJ 16cc'\	.
4r	16ddLL 16b-'\	.
.	16cc 16a'\	.
.	16b- 16g'\	.
.	16aJJ 16f'\	.
!!LO:LB:g=original
=43	=43	=43
*	*^	*
!	!	!	!LO:DY:rj
4B- 4G 4C\	16dd/LL	8.e\L	p
.	16cc/	.	.
.	16b-/JJ	.	.
.	32r	32ryy	.
.	32e/	32e\Jkk	.
8r	(4g/	2ryy	.
8B-L 8E 8C\	.	.	.
8AJ 8F\	8f/)	.	.
8r	8r	.	.
*	*v	*v	*
=44:|!	=44:|!	=44:|!
*>F	*>F	*>F
!	!	!LO:DY:rj
8A 8F 8D\L	8a'/L	f
8A 8F 8D\	(16a/L	.
.	16b-/JJ)	.
*	*rep	*
8A 8F 8D\	8a'/L	.
8A 8F 8D\	(16a/L	.
.	16b-/JJ)	.
*	*Xrep	*
*	*rep	*
8A 8F 8D\	8a'/L	.
8A 8F 8D\J	(16a/L	.
.	16b-/JJ)	.
*	*Xrep	*
=45	=45	=45
8A 8F 8D\L	8a'\L	.
8A 8F 8D\	8dd'\J	.
8A 8F 8D\	4.ff'\	.
8A 8F 8D\	.	.
8A 8F 8D\	.	.
8A 8F 8D\J	8dd\	.
!!LO:LB:g=original
=46	=46	=46
8A 8G 8E 8C#X\L	(16ee\LL	.
.	16bb-\)	.
8A 8G 8E 8C#X\	(16bb-\	.
.	16aa\JJ)	.
8A 8G 8E 8C#X\	(16aa\LL	.
.	16gg\)	.
8A 8G 8E 8C#X\	(16gg\	.
.	16ff\JJ)	.
8A 8G 8E 8C#X\	(16ff\LL	.
.	16ee\)	.
8A 8G 8E 8C#X\J	(16ee\	.
.	16a\JJ)	.
=47	=47	=47
8A 8F 8D\L	8ff|\L	.
!	!LO:TUP:a:problem:klamra łukowa	!
8A 8F 8D\	24gg\L	.
.	24ff\	.
.	24ee\JJ	.
8A 8F 8D\	8dd\	.
!	!LO:TUP:a:problem:klamra łukowa	!
8A 8F 8D\	24ggg\LL	.
.	24fff\	.
.	24eee\JJ	.
8A 8F 8D\	8ddd\	.
8A 8F 8D\J	8ff\	.
=48	=48	=48
8c 8G 8E\L	(16gg\LL	.
.	16ddd\)	.
8c 8G 8E\	(16ddd\	.
.	16ccc\JJ)	.
8c 8G 8E\	(16ccc\LL	.
.	16bb-\)	.
8c 8G 8E\	(16bb-\	.
.	16aa\JJ)	.
8c 8G 8E\	(16aa\LL	.
.	16gg\)	.
8c 8G 8E\J	(16gg\	.
.	16gg#X\JJ)	.
!!LO:LB:g=original
=49	=49	=49
8c 8A 8F\L	8aa\L	.
!	!LO:TUP:a:problem:klamra łukowa	!
8c 8A 8F\	24bb-\L	.
.	24aa\	.
.	24gg\JJ	.
8c 8A 8F\	8ff\	.
*	*8va	*
!	!LO:TUP:a:problem:klamra łukowa	!
8c 8A 8F\J	24bbb-\LL	.
.	24aaa\	.
.	24ggg\JJ	.
8c 8A 8F\	8fff\	.
*	*X8va	*
!	!LO:TX:a:t=loco	!
8r	(16ff\LL	.
.	16ee\JJ)	.
=50	=50	=50
8G#X 8D 8BB-/L	(16dd\LL	.
.	16cc#X\	.
8G#X 8D 8BB-/	16dd\	.
.	16cc#\JJ	.
8G#X 8D 8BB-/	16dd\LL	.
.	16cc#\	.
8G#X 8D 8BB-/	16dd\	.
.	16cc#\JJ)	.
8G#X 8D 8BB-/	(16dd\LL	.
.	16ff\	.
8G#X 8D 8BB-/J	16ee\	.
.	16dd\JJ)	.
*Xtremolo	*	*
=51	=51	=51
8AL 8E 8C#X 8AA\	16cc#X'\LL	.
.	(16a\	.
8A 8E 8C# 8AA\	16cc#\	.
.	16ee\JJ	.
8A 8E 8C# 8AA\	16aa\LL)	.
.	(16cc#\	.
8AJ 8E 8C# 8AA\	16ee\	.
.	16aa\JJ	.
8AL 8F 8D\	16dd'\L)L	.
.	(16ff\	.
8AJ 8F 8D\	16ee\	.
.	16dd\JJ)	.
!!LO:PB:g=original
=52	=52	=52
*tremolo	*	*
8A 8E 8C#X 8AA\L	16cc#X|\LL	.
.	(16a\	.
8A 8E 8C#X 8AA\	16cc#\	.
.	16ee\JJ	.
8A 8E 8C#X 8AA\	16aa\LL)	.
!	!	!LO:HP:t=crescendo.
.	(16cc#\	<
8A 8E 8C#X 8AA\J	16ee\	.
.	16aa\JJ	.
*Xtremolo	*	*
8AL 8F 8D\	16dd|\LL)	.
.	(16ff\	.
8AJ 8F 8D\	16ee\	.
.	16dd\JJ)	.
=53	=53	=53
*rep	*	*
*tremolo	*	*
8A 8E 8C#X 8AA\L	16cc#X|\LL	.
.	(16a\	.
8A 8E 8C#X 8AA\	16cc#\	.
.	16ee\JJ	.
8A 8E 8C#X 8AA\	16aa\LL)	.
.	(16cc#\	.
8A 8E 8C#X 8AA\J	16ee\	.
.	16aa\JJ	.
*Xtremolo	*	*
8AL 8F 8D\	16dd|\LL)	.
.	(16ff\	.
8AJ 8F 8D\	16ee\	.
.	16dd\JJ)	.
*Xrep	*	*
=54	=54	=54
!	!	!LO:DY:rj
8A 8E 8C#X 8AA\	8aa 8cc#X 8a\	f
16A\LL	16a/LL	.
16A\JJ	16a/JJ	.
8A\L	8a/L	.
16A\L	16a/L	.
16A\JJ	16a/JJ	.
8A\L	8a/L	.
8A\J	8a/J	.
!!LO:LB:g=original
=55	=55	=55
!	!	!LO:DY:rj:t=ffo
2.Cn 2.CCn/	8.bb-L 8.gg|\	ff
.	16aaJk 16ff|\	.
.	16ggLL 16ee'\	.
.	16ff 16dd'\	.
.	16ee 16cc'\	.
.	16ddJJ 16b-'\	.
.	16ccLL 16a'/	.
.	16b- 16g'/	.
.	16a 16f'/	.
!LO:TX:a:t=[segno]:problem:znak segno na kresce taktowej	!LO:TX:a:t=[segno]:problem:znak segno na kresce taktowej	!
!	!LO:TX:b:i:t=d'al segno al fine \net Polonez da capo.	!
.	16gJJ 16e'/	.
!!LO:LB:g=original
=56||	=56||	=56||
!!!OMD: Coda.
*>G	*>G	*>G
*k[]	*k[]	*
!LO:TX:a:t=P:problem:brak kasownika przy kluczu	!LO:TX:a:t=P:problem:brak kasownika przy kluczu	!
8CL 8CC/	8cccL 8ee 8cc'\	.
16CL 16CC/	16cccL 16ee 16cc'\	.
16CJJ 16CC/	16cccJJ 16ee 16cc'\	.
16CLL 16CC/	(16cccLL 16ee 16cc\	.
16D/	(16bb'\)	.
16E/	16aa'\	.
16F/JJ	16gg'\JJ	.
16G\LL	16ff'\LL	.
16A\	16ee'\	.
16B\	16dd'\	.
16c\JJ	16cc'\JJ)	.
=57	=57	=57
*rep	*	*
8CL 8CC/	8eeeL 8ccc 8gg 8ee'\	.
16CL 16CC/	16eeeL 16ccc 16gg 16ee'\	.
16CJJ 16CC/	16eeeJJ 16ccc 16gg 16ee'\	.
16CLL 16CC/	(16eeeLL 16ccc 16gg 16ee\	.
16D/	16ddd 16bb\)	.
16E/	16ccc 16aa'\	.
16F/JJ	16bbJJ 16gg'\	.
16G\LL	16aaLL 16ff'\	.
16A\	16gg 16ee'\	.
16B\	16ff 16dd'\	.
16c\JJ	16eeJJ 16cc'\	.
*Xrep	*	*
!!LO:LB:g=original
=58	=58	=58
8CL 8CC/	8gggL 8eee 8ccc 8gg\	.
16CL 16CC/	16gggL 16eee 16ccc 16gg\	.
16CJJ 16CC/	16gggJJ 16eee 16ccc 16gg\	.
16CLL 16CC/	16gggLL 16eee 16ccc 16gg\	.
16D/	16fff 16ddd\	.
16E/	16eee 16ccc\	.
16F/JJ	16dddJJ 16bb\	.
16G\LL	16cccLL 16aa\	.
16A\	16bb 16gg\	.
16B\	16aa 16ff\	.
16c\JJ	16ggJJ 16ee\	.
=59	=59	=59
8F 8FF/	8aa 8ff 8cc\	.
8r	8r	.
8G 8GG/	8gg 8ee 8cc\	.
8r	8r	.
4G 4GG/	4bb 4gg 4ff 4dd\	.
=60	=60	=60
4.C 4.CC/	8cccL 8gg 8ee\	.
.	16cccL 16ee\	.
.	16dddJJ 16ff\	.
.	8eeeL 8gg\	.
8E 8EE/	8ccc 8ee\	.
8GL 8GG/	8ddd 8ff\	.
8GJ 8GG/	8bbJ 8dd\	.
!!LO:LB:g=original
=61	=61	=61
4.C 4.CC/	8cccL 8ee\	.
.	16cccL 16ee\	.
.	16dddJJ 16ff\	.
.	8eeeL 8gg\	.
8E 8EE/	8ccc 8ee\	.
8GL 8GG/	8ddd 8ff\	.
8GJ 8GG/	8bbJ 8dd\	.
=62	=62	=62
*^	*	*
!	!	!LO:TX:t=P:problem:mixed beam	!
8G/	8C\	8cccL 8ee\	.
16G/LL	8ryy	16g/L	.
16G/JJ	.	16g/JJ	.
8c\L	2ryy	8cc\L	.
8e\J	.	8ee\J	.
!	!LO:TX:t=P:problem:mixed beam	!	!
8g\L	.	8gg\L	.
8GJ 8GG/	.	8bbJ 8gg 8ff 8dd\	.
*v	*v	*	*
=63	=63	=63
!	!LO:TX:t=P:problem:mixed beam	!
8G 8C\	8cccL 8gg 8ee\	.
16G\LL	16g/L	.
16G\JJ	16g/JJ	.
8c\L	8cc\L	.
8e\J	8ee\J	.
!LO:TX:t=P:problem:mixed beam	!	!
8g\L	8gg\L	.
8GJ 8GG\	8bbJ 8gg 8ff 8dd\	.
=64	=64	=64
4G 4C/	4ccc 4gg 4ee\	.
4r	4r	.
4r	4r	.
!!LO:LB:g=original
=65	=65	=65
4c 4G 4E 4C\	4eee 4ccc 4gg 4ee\	.
4r	4r	.
8.r	8.r	.
16C 16CC/	16c/	.
=66	=66	=66
2.C 2.CC;/	2.c;/	.
==	==	==
*-	*-	*-
!!!system-decoration: {(s1,s2)}
!!!RDF**kern: > = above
!!!RDF**kern: < = below
!!!RDF**kern: | = vertical stroke
!!!AIN: 1 forte
!!!ENC: Marta Lawrence
!!!END: 2021-05-07
!!!ENC: Andrzej Gręziak
!!!END: 2021-04-10
